;FLAVOR:Marlin
;TIME:10550
;Filament used: 3.90006m
;Layer height: 0.2
;MINX:35.7
;MINY:35.7
;MINZ:0.3
;MAXX:169.3
;MAXY:169.3
;MAXZ:4.9
;Generated with Cura_SteamEngine 4.5.0
M140 S60
M105
M190 S60
M104 S205
M105
M109 S205
M82 ;absolute extrusion mode
G21 ;metric values
G90 ;absolute positioning
M82 ;set extruder to absolute mode
M107 ;start with the fan off
G28 X0 Y0 ;move X/Y to min endstops
G28 Z0 ;move Z to min endstops
G1 Z15.0 F9000 ;move the platform down 15mm
G92 E0 ;zero the extruded length
G1 F200 E6 ;extrude 6 mm of feed stock
G92 E0 ;zero the extruded length again
G1 F9000
;Put printing message on LCD screen
M117 Printing...
G92 E0
G92 E0
G1 F1500 E-6.5
;LAYER_COUNT:24
;LAYER:0
M107
;MESH:G50FFL_spacer_v1.stl
G0 F3600 X59.795 Y59.795 Z0.3
;TYPE:WALL-INNER
G1 F1500 E0
G1 F1800 X60.195 Y59.277 E0.01231
G1 X60.454 Y58.678 E0.02459
G1 X60.555 Y58.034 E0.03685
G1 X60.495 Y57.384 E0.04913
G1 X60.273 Y56.769 E0.06143
G1 X59.905 Y56.23 E0.0737
G1 X59.416 Y55.798 E0.08598
G1 X58.835 Y55.501 E0.09825
G1 X58.197 Y55.359 E0.11055
G1 X57.544 Y55.38 E0.12284
G1 X56.918 Y55.562 E0.1351
G1 X56.356 Y55.894 E0.14738
G1 X55.894 Y56.356 E0.15967
G1 X55.562 Y56.918 E0.17195
G1 X55.38 Y57.544 E0.18421
G1 X55.359 Y58.197 E0.1965
G1 X55.501 Y58.835 E0.20879
G1 X55.798 Y59.416 E0.22107
G1 X56.23 Y59.905 E0.23334
G1 X56.769 Y60.273 E0.24562
G1 X57.384 Y60.495 E0.25792
G1 X58.034 Y60.555 E0.2702
G1 X58.678 Y60.454 E0.28246
G1 X59.277 Y60.195 E0.29473
G1 X59.795 Y59.795 E0.30704
G0 F3600 X59.865 Y59.865
G0 X72.8 Y50.517
G0 X73.969 Y49.873
G0 X75.212 Y49.38
G0 X76.507 Y49.048
G0 X77.832 Y48.882
G0 X79.168 Y48.882
G0 X80.493 Y49.048
G0 X81.788 Y49.38
G0 X83.031 Y49.873
G0 X85.323 Y51.258
G0 X85.259 Y51.334
G1 F1800 X84.731 Y50.924 E0.31962
G1 X84.179 Y50.55 E0.33216
G1 X83.606 Y50.211 E0.34468
G1 X83.014 Y49.909 E0.35719
G1 X82.402 Y49.644 E0.36973
G1 X81.776 Y49.418 E0.38225
G1 X81.137 Y49.232 E0.39477
G1 X80.486 Y49.087 E0.40731
G1 X79.828 Y48.983 E0.41985
G1 X79.166 Y48.921 E0.43235
G1 X78.5 Y48.9 E0.44489
G1 X77.834 Y48.921 E0.45742
G1 X77.172 Y48.983 E0.46993
G1 X76.514 Y49.087 E0.48246
G1 X75.863 Y49.232 E0.495
G1 X75.224 Y49.418 E0.50752
G1 X74.598 Y49.644 E0.52004
G1 X73.986 Y49.909 E0.53259
G1 X73.394 Y50.211 E0.54509
G1 X72.821 Y50.55 E0.55761
G1 X72.269 Y50.924 E0.57015
G1 X71.744 Y51.333 E0.58267
G1 X71.243 Y51.772 E0.5952
G1 X70.78 Y52.235 E0.60752
G1 X70.34 Y52.735 E0.62005
G1 X69.931 Y53.259 E0.63255
G1 X69.556 Y53.811 E0.64511
G1 X69.217 Y54.383 E0.65761
G1 X68.914 Y54.977 E0.67016
G1 X68.649 Y55.587 E0.68267
G1 X68.423 Y56.214 E0.6952
G1 X68.235 Y56.853 E0.70773
G1 X68.09 Y57.503 E0.72026
G1 X67.985 Y58.162 E0.73281
G1 X67.923 Y58.824 E0.74532
G1 X67.901 Y59.489 E0.75784
G1 X67.92 Y60.154 E0.77035
G1 X67.981 Y60.817 E0.78287
G1 X68.074 Y61.422 E0.79439
G1 X67.054 Y62.294 E0.81963
G1 X65.808 Y63.427 E0.85131
G1 X64.599 Y64.599 E0.88298
G1 X63.463 Y65.771 E0.91369
G1 X62.329 Y67.016 E0.94536
G1 X61.234 Y68.294 E0.97702
G1 X60.18 Y69.608 E1.00871
G1 X59.168 Y70.953 E1.04037
G1 X58.199 Y72.33 E1.07204
G1 X57.272 Y73.736 E1.10372
G1 X56.392 Y75.171 E1.13538
G1 X55.557 Y76.633 E1.16705
G1 X54.767 Y78.12 E1.19873
G1 X54.024 Y79.632 E1.23042
G1 X53.331 Y81.165 E1.26206
G1 X52.684 Y82.72 E1.29375
G1 X52.088 Y84.295 E1.32542
G1 X51.541 Y85.888 E1.35711
G1 X51.044 Y87.497 E1.38878
G1 X50.598 Y89.12 E1.42044
G1 X50.204 Y90.756 E1.4521
G1 X49.861 Y92.406 E1.4838
G1 X49.57 Y94.065 E1.51548
G1 X49.331 Y95.731 E1.54714
G1 X49.144 Y97.404 E1.57881
G1 X49.011 Y99.083 E1.61049
G1 X48.929 Y100.765 E1.64217
G1 X48.902 Y102.448 E1.67383
G1 X48.924 Y104.132 E1.70551
G1 X49.003 Y105.814 E1.73718
G1 X49.133 Y107.493 E1.76886
G1 X49.317 Y109.167 E1.80054
G1 X49.552 Y110.834 E1.83221
G1 X49.839 Y112.493 E1.86388
G1 X50.18 Y114.142 E1.89555
G1 X50.57 Y115.78 E1.92722
G1 X51.014 Y117.404 E1.95889
G1 X51.507 Y119.014 E1.99057
G1 X52.051 Y120.608 E2.02225
G1 X52.645 Y122.183 E2.05391
G1 X53.288 Y123.74 E2.0856
G1 X53.979 Y125.274 E2.11725
G1 X54.719 Y126.788 E2.14895
G1 X55.506 Y128.276 E2.18061
G1 X56.338 Y129.74 E2.21228
G1 X57.217 Y131.176 E2.24396
G1 X58.14 Y132.583 E2.27561
G1 X59.106 Y133.963 E2.30729
G1 X60.117 Y135.31 E2.33898
G1 X61.169 Y136.626 E2.37067
G1 X62.261 Y137.906 E2.40232
G1 X63.392 Y139.153 E2.43398
G1 X64.562 Y140.364 E2.46566
G1 X65.808 Y141.573 E2.49832
G1 X67.054 Y142.706 E2.53
G1 X68.333 Y143.799 E2.56164
G1 X69.648 Y144.852 E2.59333
G1 X70.994 Y145.864 E2.62501
G1 X72.373 Y146.831 E2.65669
G1 X73.78 Y147.756 E2.68836
G1 X75.215 Y148.635 E2.72002
G1 X76.678 Y149.47 E2.75171
G1 X78.165 Y150.257 E2.78335
G1 X79.679 Y150.999 E2.81507
G1 X81.213 Y151.692 E2.84673
G1 X82.768 Y152.336 E2.87839
G1 X84.344 Y152.931 E2.91008
G1 X85.936 Y153.476 E2.94173
G1 X87.546 Y153.972 E2.97342
G1 X89.169 Y154.416 E3.00507
G1 X90.807 Y154.809 E3.03676
G1 X92.457 Y155.15 E3.06845
G1 X94.115 Y155.44 E3.10011
G1 X95.782 Y155.677 E3.13179
G1 X97.455 Y155.862 E3.16345
G1 X99.134 Y155.994 E3.19513
G1 X100.816 Y156.074 E3.2268
G1 X102.5 Y156.1 E3.25848
G1 X104.184 Y156.074 E3.29016
G1 X105.866 Y155.994 E3.32184
G1 X107.545 Y155.862 E3.35352
G1 X109.218 Y155.677 E3.38518
G1 X110.885 Y155.44 E3.41685
G1 X112.543 Y155.15 E3.44852
G1 X114.193 Y154.809 E3.48021
G1 X115.831 Y154.416 E3.5119
G1 X117.454 Y153.972 E3.54355
G1 X119.064 Y153.476 E3.57524
G1 X119.402 Y153.36 E3.58196
G1 X119.741 Y153.666 E3.59055
G1 X120.269 Y154.076 E3.60312
G1 X120.821 Y154.45 E3.61567
G1 X121.394 Y154.789 E3.62819
G1 X121.986 Y155.091 E3.64069
G1 X122.598 Y155.356 E3.65324
G1 X123.224 Y155.582 E3.66575
G1 X123.863 Y155.768 E3.67827
G1 X124.514 Y155.913 E3.69082
G1 X125.172 Y156.017 E3.70335
G1 X125.834 Y156.079 E3.71586
G1 X126.5 Y156.1 E3.72839
G1 X127.166 Y156.079 E3.74093
G1 X127.828 Y156.017 E3.75343
G1 X128.486 Y155.913 E3.76596
G1 X129.137 Y155.768 E3.77851
G1 X129.776 Y155.582 E3.79103
G1 X130.402 Y155.356 E3.80355
G1 X131.014 Y155.091 E3.81609
G1 X131.606 Y154.789 E3.82859
G1 X132.179 Y154.45 E3.84112
G1 X132.731 Y154.076 E3.85366
G1 X133.256 Y153.667 E3.86618
G1 X133.757 Y153.228 E3.87871
G1 X134.22 Y152.765 E3.89102
G1 X134.66 Y152.265 E3.90355
G1 X135.069 Y151.741 E3.91606
G1 X135.444 Y151.189 E3.92861
G1 X135.783 Y150.617 E3.94112
G1 X136.086 Y150.023 E3.95366
G1 X136.351 Y149.413 E3.96617
G1 X136.577 Y148.786 E3.97871
G1 X136.765 Y148.147 E3.99124
G1 X136.91 Y147.497 E4.00376
G1 X137.015 Y146.838 E4.01632
G1 X137.077 Y146.176 E4.02882
G1 X137.099 Y145.511 E4.04134
G1 X137.08 Y144.846 E4.05385
G1 X137.019 Y144.183 E4.06638
G1 X136.926 Y143.578 E4.07789
G1 X137.946 Y142.706 E4.10313
G1 X139.192 Y141.573 E4.13481
G1 X140.401 Y140.401 E4.16649
G1 X141.537 Y139.229 E4.19719
G1 X142.671 Y137.984 E4.22887
G1 X143.766 Y136.706 E4.26053
G1 X144.82 Y135.392 E4.29221
G1 X145.832 Y134.047 E4.32387
G1 X146.801 Y132.67 E4.35555
G1 X147.728 Y131.264 E4.38722
G1 X148.608 Y129.829 E4.41889
G1 X149.443 Y128.367 E4.45056
G1 X150.233 Y126.88 E4.48223
G1 X150.976 Y125.368 E4.51392
G1 X151.669 Y123.835 E4.54557
G1 X152.316 Y122.28 E4.57725
G1 X152.912 Y120.705 E4.60893
G1 X153.459 Y119.112 E4.64061
G1 X153.956 Y117.503 E4.67229
G1 X154.402 Y115.88 E4.70395
G1 X154.796 Y114.244 E4.7356
G1 X155.139 Y112.594 E4.7673
G1 X155.43 Y110.935 E4.79899
G1 X155.669 Y109.269 E4.83065
G1 X155.856 Y107.596 E4.86231
G1 X155.989 Y105.917 E4.89399
G1 X156.071 Y104.235 E4.92567
G1 X156.098 Y102.552 E4.95733
G1 X156.076 Y100.868 E4.98901
G1 X155.997 Y99.186 E5.02069
G1 X155.867 Y97.507 E5.05236
G1 X155.683 Y95.833 E5.08404
G1 X155.448 Y94.166 E5.11571
G1 X155.161 Y92.507 E5.14738
G1 X154.82 Y90.858 E5.17906
G1 X154.43 Y89.22 E5.21073
G1 X153.986 Y87.596 E5.2424
G1 X153.493 Y85.986 E5.27407
G1 X152.949 Y84.392 E5.30575
G1 X152.355 Y82.817 E5.33742
G1 X151.712 Y81.26 E5.3691
G1 X151.021 Y79.726 E5.40075
G1 X150.281 Y78.212 E5.43245
G1 X149.494 Y76.724 E5.46411
G1 X148.662 Y75.26 E5.49579
G1 X147.783 Y73.824 E5.52746
G1 X146.86 Y72.417 E5.55911
G1 X145.894 Y71.037 E5.5908
G1 X144.883 Y69.69 E5.62248
G1 X143.831 Y68.374 E5.65417
G1 X142.739 Y67.094 E5.68582
G1 X141.608 Y65.847 E5.71749
G1 X140.438 Y64.636 E5.74916
G1 X139.192 Y63.427 E5.78182
G1 X137.946 Y62.294 E5.8135
G1 X136.667 Y61.201 E5.84515
G1 X135.352 Y60.148 E5.87684
G1 X134.006 Y59.136 E5.90851
G1 X132.627 Y58.169 E5.9402
G1 X131.22 Y57.244 E5.97187
G1 X129.785 Y56.365 E6.00352
G1 X128.322 Y55.53 E6.03521
G1 X126.835 Y54.743 E6.06686
G1 X125.321 Y54.001 E6.09857
G1 X123.787 Y53.308 E6.13024
G1 X122.232 Y52.664 E6.1619
G1 X120.656 Y52.069 E6.19358
G1 X119.064 Y51.524 E6.22524
G1 X117.454 Y51.028 E6.25693
G1 X115.831 Y50.584 E6.28858
G1 X114.193 Y50.191 E6.32026
G1 X112.543 Y49.85 E6.35196
G1 X110.885 Y49.56 E6.38362
G1 X109.218 Y49.323 E6.41529
G1 X107.545 Y49.138 E6.44695
G1 X105.866 Y49.006 E6.47863
G1 X104.184 Y48.926 E6.51031
G1 X102.5 Y48.9 E6.54199
G1 X100.816 Y48.926 E6.57367
G1 X99.134 Y49.006 E6.60534
G1 X97.455 Y49.138 E6.63703
G1 X95.782 Y49.323 E6.66869
G1 X94.115 Y49.56 E6.70036
G1 X92.457 Y49.85 E6.73202
G1 X90.807 Y50.191 E6.76371
G1 X89.169 Y50.584 E6.7954
G1 X87.546 Y51.028 E6.82705
G1 X85.936 Y51.524 E6.85874
G1 X85.598 Y51.64 E6.86546
G1 X85.259 Y51.334 E6.87405
G0 F3600 X85.323 Y51.258
G0 X94.109 Y49.521
G0 X97.452 Y49.099
G0 X100.815 Y48.887
G0 X104.185 Y48.887
G0 X107.548 Y49.099
G0 X110.891 Y49.521
G0 X114.201 Y50.152
G0 X117.465 Y50.99
G0 X146.458 Y60.592
G0 X146.479 Y60.495
G1 F1800 X147.13 Y60.555 E6.88635
G1 X147.774 Y60.454 E6.89861
G1 X148.374 Y60.195 E6.91091
G1 X148.89 Y59.794 E6.9232
G1 X149.29 Y59.277 E6.9355
G1 X149.549 Y58.678 E6.94777
G1 X149.651 Y58.034 E6.96004
G1 X149.591 Y57.384 E6.97231
G1 X149.369 Y56.769 E6.98461
G1 X149.001 Y56.23 E6.99689
G1 X148.512 Y55.798 E7.00916
G1 X147.93 Y55.501 E7.02145
G1 X147.293 Y55.359 E7.03373
G1 X146.64 Y55.38 E7.04602
G1 X146.013 Y55.562 E7.0583
G1 X145.451 Y55.894 E7.07058
G1 X144.989 Y56.356 E7.08287
G1 X144.657 Y56.918 E7.09515
G1 X144.475 Y57.545 E7.10743
G1 X144.455 Y58.197 E7.1197
G1 X144.597 Y58.835 E7.132
G1 X144.894 Y59.416 E7.14427
G1 X145.325 Y59.905 E7.15653
G1 X145.865 Y60.273 E7.16882
G1 X146.479 Y60.495 E7.1811
G0 F3600 X146.458 Y60.592
G0 X154.468 Y89.211
G0 X155.2 Y92.5
G0 X161.603 Y132.539
G0 X161.692 Y132.584
G1 F1800 X160.722 Y134.424 E7.22023
G1 X159.683 Y136.248 E7.25972
G1 X158.602 Y138.016 E7.2987
G1 X157.451 Y139.772 E7.33819
G1 X156.261 Y141.469 E7.37718
G1 X155.003 Y143.149 E7.41666
G1 X153.7 Y144.777 E7.45588
G1 X152.351 Y146.36 E7.49501
G1 X150.952 Y147.9 E7.53414
G1 X149.498 Y149.404 E7.57349
G1 X147.953 Y150.906 E7.61403
G1 X146.413 Y152.305 E7.65316
G1 X144.822 Y153.664 E7.69252
G1 X143.205 Y154.96 E7.7315
G1 X141.526 Y156.22 E7.77099
G1 X139.825 Y157.416 E7.8101
G1 X138.086 Y158.559 E7.84925
G1 X136.292 Y159.658 E7.88882
G1 X134.492 Y160.686 E7.92782
G1 X132.642 Y161.663 E7.96717
G1 X130.764 Y162.584 E8.00652
G1 X128.88 Y163.435 E8.0454
G1 X126.94 Y164.238 E8.0849
G1 X124.994 Y164.974 E8.12403
G1 X123.027 Y165.648 E8.16315
G1 X121.034 Y166.261 E8.20237
G1 X119.015 Y166.813 E8.24174
G1 X116.99 Y167.3 E8.28092
G1 X114.932 Y167.725 E8.32045
G1 X112.889 Y168.082 E8.35946
G1 X110.831 Y168.375 E8.39856
G1 X108.738 Y168.606 E8.43817
G1 X106.679 Y168.768 E8.47702
G1 X104.577 Y168.867 E8.51661
G1 X102.5 Y168.9 E8.55568
G1 X100.423 Y168.867 E8.59475
G1 X98.321 Y168.768 E8.63434
G1 X96.262 Y168.606 E8.67319
G1 X94.169 Y168.375 E8.7128
G1 X92.111 Y168.082 E8.7519
G1 X90.068 Y167.725 E8.79091
G1 X88.006 Y167.298 E8.83052
G1 X85.992 Y166.815 E8.86948
G1 X83.966 Y166.261 E8.90899
G1 X81.973 Y165.648 E8.94821
G1 X80.006 Y164.974 E8.98733
G1 X78.06 Y164.238 E9.02646
G1 X76.131 Y163.44 E9.06573
G1 X74.226 Y162.579 E9.10505
G1 X72.358 Y161.663 E9.14419
G1 X70.508 Y160.685 E9.18355
G1 X68.708 Y159.658 E9.22254
G1 X66.914 Y158.558 E9.26212
G1 X65.175 Y157.416 E9.30125
G1 X63.474 Y156.22 E9.34037
G1 X61.795 Y154.96 E9.37986
G1 X60.178 Y153.664 E9.41884
G1 X58.587 Y152.305 E9.4582
G1 X57.039 Y150.897 E9.49756
G1 X55.541 Y149.445 E9.5368
G1 X54.144 Y148.003 E9.57457
G1 X52.73 Y146.452 E9.61405
G1 X51.374 Y144.866 E9.6533
G1 X50.068 Y143.24 E9.69253
G1 X48.815 Y141.573 E9.73176
G1 X47.617 Y139.873 E9.77088
G1 X46.467 Y138.124 E9.81025
G1 X45.379 Y136.353 E9.84935
G1 X44.347 Y134.548 E9.88846
G1 X43.365 Y132.693 E9.92794
G1 X42.445 Y130.821 E9.96718
G1 X41.586 Y128.926 E10.00631
G1 X40.789 Y127.004 E10.04545
G1 X40.045 Y125.042 E10.08492
G1 X39.367 Y123.07 E10.12415
G1 X38.757 Y121.088 E10.16316
G1 X38.202 Y119.065 E10.20262
G1 X37.714 Y117.043 E10.24174
G1 X37.289 Y114.995 E10.28109
G1 X36.928 Y112.94 E10.32034
G1 X36.634 Y110.889 E10.35931
G1 X36.402 Y108.803 E10.39879
G1 X36.236 Y106.729 E10.43793
G1 X36.137 Y104.64 E10.47727
G1 X36.102 Y102.573 E10.51616
G1 X36.131 Y100.486 E10.55542
G1 X36.227 Y98.397 E10.59476
G1 X36.387 Y96.325 E10.63385
G1 X36.616 Y94.239 E10.67332
G1 X36.906 Y92.185 E10.71234
G1 X37.263 Y90.13 E10.75158
G1 X37.687 Y88.074 E10.79106
G1 X38.168 Y86.058 E10.83005
G1 X38.719 Y84.034 E10.86951
G1 X39.326 Y82.051 E10.90852
G1 X40.001 Y80.077 E10.94776
G1 X40.737 Y78.125 E10.987
G1 X41.535 Y76.19 E11.02638
G1 X42.394 Y74.284 E11.0657
G1 X43.308 Y72.416 E11.10482
G1 X44.278 Y70.576 E11.14395
G1 X45.317 Y68.752 E11.18343
G1 X46.398 Y66.984 E11.22241
G1 X47.549 Y65.228 E11.26191
G1 X48.739 Y63.531 E11.3009
G1 X49.997 Y61.851 E11.34038
G1 X51.3 Y60.223 E11.3796
G1 X52.649 Y58.64 E11.41872
G1 X54.048 Y57.1 E11.45786
G1 X55.502 Y55.596 E11.49721
G1 X57.048 Y54.093 E11.53777
G1 X58.587 Y52.695 E11.57688
G1 X60.178 Y51.336 E11.61624
G1 X61.795 Y50.04 E11.65522
G1 X63.473 Y48.78 E11.69469
G1 X65.175 Y47.584 E11.73382
G1 X66.914 Y46.441 E11.77297
G1 X68.708 Y45.342 E11.81254
G1 X70.508 Y44.314 E11.85153
G1 X72.358 Y43.337 E11.89089
G1 X74.237 Y42.416 E11.93025
G1 X76.12 Y41.565 E11.96912
G1 X78.06 Y40.762 E12.00861
G1 X80.006 Y40.026 E12.04775
G1 X81.973 Y39.352 E12.08686
G1 X83.966 Y38.739 E12.12608
G1 X85.985 Y38.187 E12.16546
G1 X88.01 Y37.7 E12.20463
G1 X90.068 Y37.275 E12.24416
G1 X92.111 Y36.918 E12.28318
G1 X94.169 Y36.625 E12.32228
G1 X96.261 Y36.394 E12.36187
G1 X98.321 Y36.232 E12.40074
G1 X100.423 Y36.133 E12.44032
G1 X102.5 Y36.1 E12.4794
G1 X104.577 Y36.133 E12.51847
G1 X106.679 Y36.232 E12.55805
G1 X108.739 Y36.394 E12.59692
G1 X110.831 Y36.625 E12.63651
G1 X112.889 Y36.918 E12.67562
G1 X114.932 Y37.275 E12.71463
G1 X116.994 Y37.702 E12.75424
G1 X119.008 Y38.185 E12.7932
G1 X121.034 Y38.739 E12.83271
G1 X123.027 Y39.352 E12.87193
G1 X124.994 Y40.026 E12.91104
G1 X126.935 Y40.76 E12.95008
G1 X128.868 Y41.56 E12.98943
G1 X130.774 Y42.421 E13.02877
G1 X132.642 Y43.337 E13.06791
G1 X134.492 Y44.315 E13.10727
G1 X136.292 Y45.342 E13.14625
G1 X138.075 Y46.435 E13.18559
G1 X139.825 Y47.584 E13.22497
G1 X141.527 Y48.78 E13.2641
G1 X143.2 Y50.036 E13.30345
G1 X144.817 Y51.332 E13.34243
G1 X146.404 Y52.687 E13.38169
G1 X147.957 Y54.099 E13.42117
G1 X149.445 Y55.541 E13.46015
G1 X150.853 Y56.993 E13.49819
G1 X152.27 Y58.549 E13.53778
G1 X153.622 Y60.129 E13.57689
G1 X154.92 Y61.745 E13.61588
G1 X156.185 Y63.427 E13.65547
G1 X157.376 Y65.117 E13.69436
G1 X158.523 Y66.86 E13.73361
G1 X159.615 Y68.637 E13.77285
G1 X160.657 Y70.459 E13.81233
G1 X161.627 Y72.29 E13.8513
G1 X162.548 Y74.163 E13.89057
G1 X163.409 Y76.062 E13.92979
G1 X164.209 Y77.99 E13.96905
G1 X164.953 Y79.952 E14.00852
G1 X165.627 Y81.912 E14.04751
G1 X166.241 Y83.906 E14.08676
G1 X166.795 Y85.923 E14.1261
G1 X167.283 Y87.944 E14.16521
G1 X167.708 Y89.987 E14.20446
G1 X168.069 Y92.041 E14.24369
G1 X168.365 Y94.105 E14.28292
G1 X168.597 Y96.185 E14.32228
G1 X168.763 Y98.258 E14.3614
G1 X168.863 Y100.353 E14.40086
G1 X168.898 Y102.427 E14.43987
G1 X168.869 Y104.514 E14.47914
G1 X168.773 Y106.603 E14.51847
G1 X168.613 Y108.675 E14.55756
G1 X168.384 Y110.761 E14.59704
G1 X168.094 Y112.815 E14.63606
G1 X167.737 Y114.87 E14.67529
G1 X167.313 Y116.926 E14.71478
G1 X166.832 Y118.942 E14.75377
G1 X166.281 Y120.966 E14.79323
G1 X165.674 Y122.949 E14.83224
G1 X164.999 Y124.923 E14.87148
G1 X164.263 Y126.875 E14.91072
G1 X163.465 Y128.81 E14.95009
