;FLAVOR:Marlin
;TIME:3032
;Filament used: 0.888757m
;Layer height: 0.15
;MINX:55.7
;MINY:55.7
;MINZ:0.3
;MAXX:149.3
;MAXY:149.3
;MAXZ:1.95
;Generated with Cura_SteamEngine 4.5.0
M140 S60
M105
M190 S60
M104 S205
M105
M109 S205
M82 ;absolute extrusion mode
G21 ;metric values
G90 ;absolute positioning
M82 ;set extruder to absolute mode
M107 ;start with the fan off
G28 X0 Y0 ;move X/Y to min endstops
G28 Z0 ;move Z to min endstops
G1 Z15.0 F9000 ;move the platform down 15mm
G92 E0 ;zero the extruded length
G1 F200 E6 ;extrude 6 mm of feed stock
G92 E0 ;zero the extruded length again
G1 F9000
;Put printing message on LCD screen
M117 Printing...
G92 E0
G92 E0
G1 F1500 E-6.5
;LAYER_COUNT:12
;LAYER:0
M107
;MESH:G20SC_spacer.stl
G0 F3600 X76.314 Y73.429 Z0.3
;TYPE:WALL-INNER
G1 F1500 E0
G1 F1800 X76.204 Y72.733 E0.01325
G1 X75.928 Y72.088 E0.02645
G1 X75.497 Y71.531 E0.0397
G1 X74.937 Y71.095 E0.05305
G1 X74.29 Y70.815 E0.06631
G1 X73.597 Y70.706 E0.07951
G1 X72.897 Y70.771 E0.09273
G1 X72.236 Y71.009 E0.10595
G1 X71.655 Y71.404 E0.11916
G1 X71.193 Y71.926 E0.13227
G1 X70.874 Y72.551 E0.14547
G1 X70.718 Y73.236 E0.15869
G1 X70.737 Y73.94 E0.17194
G1 X70.932 Y74.615 E0.18515
G1 X71.287 Y75.221 E0.19836
G1 X71.789 Y75.724 E0.21173
G1 X72.395 Y76.083 E0.22498
G1 X73.069 Y76.278 E0.23818
G1 X73.773 Y76.301 E0.25143
G1 X74.459 Y76.148 E0.26465
G1 X75.085 Y75.828 E0.27787
G1 X75.607 Y75.369 E0.29095
G1 X76.004 Y74.789 E0.30417
G1 X76.244 Y74.13 E0.31736
G1 X76.314 Y73.429 E0.33062
G0 F3600 X76.413 Y73.427
G0 X92.556 Y68.276
G0 X95.823 Y67.492
G0 X99.146 Y67.019
G0 X102.5 Y66.86
G0 X105.854 Y67.019
G0 X109.177 Y67.492
G0 X112.444 Y68.276
G0 X128.598 Y73.772
G0 X128.697 Y73.764
G1 F1800 X128.848 Y74.452 E0.34386
G1 X129.167 Y75.08 E0.35711
G1 X129.637 Y75.612 E0.37047
G1 X130.218 Y76.008 E0.38369
G1 X130.879 Y76.246 E0.39691
G1 X131.579 Y76.313 E0.41014
G1 X132.274 Y76.202 E0.42338
G1 X132.919 Y75.923 E0.43659
G1 X133.475 Y75.492 E0.44983
G1 X133.901 Y74.942 E0.46291
G1 X134.182 Y74.299 E0.47611
G1 X134.293 Y73.605 E0.48933
G1 X134.231 Y72.906 E0.50253
G1 X133.995 Y72.243 E0.51577
G1 X133.601 Y71.66 E0.52901
G1 X133.068 Y71.189 E0.54239
G1 X132.442 Y70.87 E0.5556
G1 X131.755 Y70.716 E0.56885
G1 X131.051 Y70.739 E0.5821
G1 X130.378 Y70.935 E0.59528
G1 X129.773 Y71.292 E0.6085
G1 X129.28 Y71.783 E0.62159
G1 X128.92 Y72.388 E0.63483
G1 X128.724 Y73.061 E0.64801
G1 X128.697 Y73.764 E0.66125
G0 F3600 X128.598 Y73.772
G0 X131.382 Y81.621
G0 X133.219 Y84.433
G0 X134.783 Y87.403
G0 X136.061 Y90.508
G0 X137.04 Y93.72
G0 X137.714 Y97.009
G0 X138.074 Y100.347
G0 X138.117 Y103.703
G0 X137.845 Y107.052
G0 X137.261 Y110.356
G0 X136.367 Y113.593
G0 X135.172 Y116.731
G0 X133.689 Y119.744
G0 X131.928 Y122.602
G0 X130.108 Y125.014
G0 X128.587 Y131.573
G0 X128.686 Y131.571
G1 F1800 X128.796 Y132.267 E0.6745
G1 X129.072 Y132.912 E0.6877
G1 X129.503 Y133.469 E0.70095
G1 X130.063 Y133.905 E0.7143
G1 X130.71 Y134.185 E0.72756
G1 X131.403 Y134.294 E0.74075
G1 X132.103 Y134.229 E0.75398
G1 X132.764 Y133.991 E0.76719
G1 X133.345 Y133.596 E0.78041
G1 X133.807 Y133.074 E0.79352
G1 X134.126 Y132.449 E0.80672
G1 X134.282 Y131.764 E0.81994
G1 X134.263 Y131.06 E0.83318
G1 X134.068 Y130.385 E0.8464
G1 X133.713 Y129.779 E0.85961
G1 X133.211 Y129.276 E0.87298
G1 X132.605 Y128.917 E0.88623
G1 X131.931 Y128.722 E0.89943
G1 X131.227 Y128.699 E0.91268
G1 X130.541 Y128.852 E0.9259
G1 X129.915 Y129.172 E0.93912
G1 X129.393 Y129.631 E0.9522
G1 X128.996 Y130.211 E0.96542
G1 X128.756 Y130.87 E0.97861
G1 X128.686 Y131.571 E0.99186
G0 F3600 X128.587 Y131.573
G0 X118.187 Y146.062
G0 X118.22 Y146.156
G1 F1800 X116.847 Y146.627 E1.01917
G1 X115.455 Y147.055 E1.04656
G1 X114.041 Y147.441 E1.07413
G1 X112.628 Y147.781 E1.10147
G1 X111.185 Y148.079 E1.12919
G1 X109.76 Y148.328 E1.1564
G1 X108.325 Y148.532 E1.18366
G1 X106.856 Y148.694 E1.21146
G1 X105.423 Y148.807 E1.2385
G1 X103.948 Y148.877 E1.26628
G1 X102.5 Y148.9 E1.29352
G1 X101.052 Y148.877 E1.32076
G1 X99.577 Y148.807 E1.34854
G1 X98.144 Y148.694 E1.37558
G1 X96.675 Y148.532 E1.40338
G1 X95.24 Y148.328 E1.43064
G1 X93.815 Y148.079 E1.45785
G1 X92.372 Y147.781 E1.48557
G1 X90.959 Y147.441 E1.51291
G1 X89.545 Y147.055 E1.54048
G1 X88.153 Y146.627 E1.56787
G1 X86.78 Y146.156 E1.59518
G1 X85.416 Y145.641 E1.6226
G1 X84.075 Y145.084 E1.64992
G1 X82.74 Y144.483 E1.67746
G1 X81.426 Y143.838 E1.70499
G1 X80.15 Y143.162 E1.73215
G1 X78.872 Y142.433 E1.75983
G1 X77.63 Y141.672 E1.78723
G1 X76.417 Y140.875 E1.81453
G1 X75.23 Y140.04 E1.84183
G1 X74.053 Y139.157 E1.86951
G1 X72.926 Y138.254 E1.89667
G1 X71.813 Y137.303 E1.92421
G1 X70.73 Y136.318 E1.95175
G1 X69.683 Y135.303 E1.97918
G1 X68.755 Y134.345 E2.00427
G1 X67.763 Y133.26 E2.03192
G1 X66.823 Y132.163 E2.0591
G1 X65.901 Y131.018 E2.08675
G1 X65.031 Y129.865 E2.11392
G1 X64.186 Y128.669 E2.14146
G1 X63.387 Y127.458 E2.16876
G1 X62.619 Y126.211 E2.1963
G1 X61.891 Y124.941 E2.22384
G1 X61.211 Y123.666 E2.25102
G1 X60.564 Y122.352 E2.27857
G1 X59.959 Y121.02 E2.30609
G1 X59.397 Y119.674 E2.33353
G1 X58.88 Y118.313 E2.36091
G1 X58.404 Y116.934 E2.38836
G1 X57.977 Y115.555 E2.41551
G1 X57.586 Y114.137 E2.44318
G1 X57.243 Y112.726 E2.47049
G1 X56.944 Y111.293 E2.49803
G1 X56.69 Y109.857 E2.52546
G1 X56.482 Y108.416 E2.55285
G1 X56.319 Y106.98 E2.58003
G1 X56.201 Y105.52 E2.60759
G1 X56.129 Y104.058 E2.63512
G1 X56.103 Y102.619 E2.66219
G1 X56.12 Y101.163 E2.68958
G1 X56.186 Y99.7 E2.71713
G1 X56.295 Y98.253 E2.74443
G1 X56.454 Y96.791 E2.77209
G1 X56.653 Y95.361 E2.79925
G1 X56.901 Y93.923 E2.8267
G1 X57.196 Y92.482 E2.85437
G1 X57.531 Y91.071 E2.88165
G1 X57.91 Y89.669 E2.90896
G1 X58.334 Y88.276 E2.93635
G1 X58.804 Y86.895 E2.9638
G1 X59.315 Y85.532 E2.99118
G1 X59.876 Y84.172 E3.01885
G1 X60.466 Y82.853 E3.04603
G1 X61.107 Y81.537 E3.07357
G1 X61.789 Y80.243 E3.10108
G1 X62.502 Y78.984 E3.1283
G1 X63.264 Y77.734 E3.15583
G1 X64.056 Y76.52 E3.1831
G1 X64.903 Y75.31 E3.21088
G1 X65.764 Y74.157 E3.23795
G1 X66.673 Y73.017 E3.26538
G1 X67.629 Y71.892 E3.29315
G1 X68.595 Y70.826 E3.32021
G1 X69.607 Y69.776 E3.34764
G1 X70.74 Y68.673 E3.37739
G1 X71.813 Y67.697 E3.40467
G1 X72.926 Y66.746 E3.43221
G1 X74.053 Y65.843 E3.45937
G1 X75.229 Y64.96 E3.48704
G1 X76.417 Y64.125 E3.51435
G1 X77.63 Y63.328 E3.54165
G1 X78.872 Y62.567 E3.56905
G1 X80.15 Y61.839 E3.59672
G1 X81.426 Y61.162 E3.62389
G1 X82.741 Y60.518 E3.65143
G1 X84.076 Y59.915 E3.67899
G1 X85.428 Y59.355 E3.70651
G1 X86.78 Y58.844 E3.7337
G1 X88.153 Y58.373 E3.76101
G1 X89.545 Y57.945 E3.7884
G1 X90.959 Y57.559 E3.81597
G1 X92.372 Y57.219 E3.84331
G1 X93.814 Y56.921 E3.87101
G1 X95.24 Y56.672 E3.89824
G1 X96.675 Y56.468 E3.9255
G1 X98.143 Y56.306 E3.95328
G1 X99.577 Y56.193 E3.98034
G1 X101.052 Y56.123 E4.00812
G1 X102.5 Y56.1 E4.03536
G1 X103.948 Y56.123 E4.0626
G1 X105.423 Y56.193 E4.09038
G1 X106.857 Y56.306 E4.11743
G1 X108.325 Y56.468 E4.14522
G1 X109.76 Y56.672 E4.17248
G1 X111.186 Y56.921 E4.19971
G1 X112.628 Y57.219 E4.22741
G1 X114.041 Y57.559 E4.25475
G1 X115.455 Y57.945 E4.28232
G1 X116.847 Y58.373 E4.30971
G1 X118.22 Y58.844 E4.33702
G1 X119.584 Y59.359 E4.36444
G1 X120.925 Y59.916 E4.39176
G1 X122.26 Y60.517 E4.4193
G1 X123.568 Y61.159 E4.4467
G1 X124.85 Y61.838 E4.47399
G1 X126.128 Y62.567 E4.50167
G1 X127.36 Y63.322 E4.52885
G1 X128.583 Y64.125 E4.55637
G1 X129.771 Y64.96 E4.58368
G1 X130.942 Y65.839 E4.61123
G1 X132.069 Y66.742 E4.63839
G1 X133.178 Y67.689 E4.66582
G1 X134.266 Y68.678 E4.69348
G1 X135.303 Y69.683 E4.72065
G1 X136.241 Y70.651 E4.746
G1 X137.228 Y71.73 E4.77351
G1 X138.173 Y72.832 E4.80081
G1 X139.095 Y73.977 E4.82847
G1 X139.969 Y75.135 E4.85576
G1 X140.814 Y76.331 E4.8833
G1 X141.61 Y77.537 E4.91049
G1 X142.381 Y78.789 E4.93814
G1 X143.103 Y80.048 E4.96544
G1 X143.786 Y81.328 E4.99274
G1 X144.436 Y82.648 E5.02041
G1 X145.033 Y83.963 E5.04758
G1 X145.598 Y85.314 E5.07512
G1 X146.114 Y86.67 E5.10242
G1 X146.59 Y88.047 E5.12982
G1 X147.021 Y89.439 E5.15723
G1 X147.411 Y90.852 E5.18481
G1 X147.754 Y92.261 E5.21208
G1 X148.055 Y93.701 E5.23976
G1 X148.307 Y95.124 E5.26694
G1 X148.517 Y96.577 E5.29456
G1 X148.681 Y98.02 E5.32187
G1 X148.798 Y99.468 E5.3492
G1 X148.871 Y100.936 E5.37685
G1 X148.897 Y102.381 E5.40403
G1 X148.88 Y103.837 E5.43142
G1 X148.814 Y105.3 E5.45897
G1 X148.705 Y106.747 E5.48627
G1 X148.546 Y108.209 E5.51393
G1 X148.347 Y109.639 E5.54109
G1 X148.099 Y111.077 E5.56854
G1 X147.805 Y112.514 E5.59613
G1 X147.469 Y113.929 E5.62349
G1 X147.09 Y115.331 E5.6508
G1 X146.666 Y116.724 E5.6782
G1 X146.196 Y118.105 E5.70564
G1 X145.685 Y119.468 E5.73302
G1 X145.124 Y120.828 E5.76069
G1 X144.534 Y122.147 E5.78787
G1 X143.893 Y123.463 E5.81541
G1 X143.211 Y124.757 E5.84292
G1 X142.498 Y126.016 E5.87014
G1 X141.736 Y127.266 E5.89767
G1 X140.944 Y128.48 E5.92494
G1 X140.097 Y129.69 E5.95272
G1 X139.236 Y130.843 E5.97979
G1 X138.327 Y131.983 E6.00722
G1 X137.372 Y133.107 E6.03496
G1 X136.405 Y134.174 E6.06205
G1 X135.393 Y135.224 E6.08948
G1 X134.26 Y136.327 E6.11923
G1 X133.187 Y137.303 E6.14651
G1 X132.074 Y138.254 E6.17405
G1 X130.947 Y139.157 E6.20121
G1 X129.77 Y140.04 E6.22889
G1 X128.583 Y140.875 E6.25619
G1 X127.37 Y141.672 E6.28349
G1 X126.128 Y142.433 E6.31089
G1 X124.85 Y143.161 E6.33856
G1 X123.574 Y143.838 E6.36573
G1 X122.259 Y144.482 E6.39327
G1 X120.926 Y145.084 E6.42078
G1 X119.572 Y145.645 E6.44835
G1 X118.22 Y146.156 E6.47554
G0 F3600 X118.187 Y146.062
G0 X89.544 Y141.675
G0 X89.555 Y141.576
G1 F1800 X91.826 Y141.6 E6.51826
G1 X115.028 Y141.6 E6.95471
G1 X115.675 Y141.539 E6.96693
G1 X116.326 Y141.35 E6.97968
G1 X116.931 Y141.042 E6.99245
G1 X117.467 Y140.626 E7.00521
G1 X117.903 Y140.131 E7.01762
G1 X118.252 Y139.551 E7.03036
G1 X118.484 Y138.914 E7.04311
G1 X118.592 Y138.252 E7.05572
G1 X118.6 Y134.248 E7.13104
G1 X118.737 Y134.18 E7.13392
G1 X119.65 Y133.697 E7.15335
G1 X120.622 Y133.142 E7.1744
G1 X121.575 Y132.559 E7.19542
G1 X122.51 Y131.944 E7.21647
G1 X123.426 Y131.302 E7.23751
G1 X124.32 Y130.629 E7.25856
G1 X125.192 Y129.93 E7.27958
G1 X126.042 Y129.204 E7.30061
G1 X126.87 Y128.452 E7.32165
G1 X127.673 Y127.673 E7.34269
G1 X128.393 Y126.93 E7.36216
G1 X129.147 Y126.106 E7.38317
G1 X129.875 Y125.258 E7.40419
G1 X130.576 Y124.386 E7.42523
G1 X131.249 Y123.494 E7.44625
G1 X131.895 Y122.58 E7.46731
G1 X132.512 Y121.647 E7.48835
G1 X133.098 Y120.693 E7.50941
G1 X133.654 Y119.725 E7.53041
G1 X134.179 Y118.738 E7.55144
G1 X134.675 Y117.734 E7.5725
G1 X135.136 Y116.716 E7.59352
G1 X135.567 Y115.683 E7.61458
G1 X135.965 Y114.638 E7.63561
G1 X136.329 Y113.581 E7.65664
G1 X136.661 Y112.514 E7.67766
G1 X136.958 Y111.435 E7.69871
G1 X137.222 Y110.348 E7.71975
G1 X137.451 Y109.254 E7.74078
G1 X137.646 Y108.153 E7.76181
G1 X137.806 Y107.047 E7.78283
G1 X137.932 Y105.935 E7.80388
G1 X138.023 Y104.82 E7.82493
G1 X138.078 Y103.702 E7.84598
G1 X138.098 Y102.585 E7.867
G1 X138.085 Y101.467 E7.88803
G1 X138.035 Y100.349 E7.90908
G1 X137.949 Y99.234 E7.93011
G1 X137.83 Y98.122 E7.95115
G1 X137.675 Y97.015 E7.97218
G1 X137.485 Y95.913 E7.99321
G1 X137.261 Y94.818 E8.01424
G1 X137.002 Y93.729 E8.03529
G1 X136.709 Y92.65 E8.05632
G1 X136.383 Y91.58 E8.07737
G1 X136.024 Y90.521 E8.0984
G1 X135.63 Y89.475 E8.11943
G1 X135.206 Y88.44 E8.14046
G1 X134.747 Y87.419 E8.16152
G1 X134.257 Y86.414 E8.18255
G1 X133.738 Y85.425 E8.20356
G1 X133.185 Y84.453 E8.2246
G1 X132.603 Y83.497 E8.24565
G1 X131.991 Y82.561 E8.26669
G1 X131.35 Y81.644 E8.28773
G1 X130.681 Y80.749 E8.30875
G1 X129.984 Y79.874 E8.3298
G1 X129.26 Y79.022 E8.35083
G1 X128.508 Y78.193 E8.37188
G1 X127.733 Y77.388 E8.3929
G1 X126.87 Y76.549 E8.41554
G1 X126.042 Y75.796 E8.43659
G1 X125.192 Y75.07 E8.45762
G1 X124.32 Y74.371 E8.47864
G1 X123.426 Y73.698 E8.49969
G1 X122.51 Y73.056 E8.52073
G1 X121.575 Y72.441 E8.54179
G1 X120.622 Y71.858 E8.5628
G1 X119.65 Y71.303 E8.58385
G1 X118.663 Y70.781 E8.60486
G1 X117.657 Y70.288 E8.62593
G1 X116.638 Y69.828 E8.64696
G1 X115.605 Y69.4 E8.66799
G1 X114.56 Y69.005 E8.68901
G1 X113.502 Y68.643 E8.71004
G1 X112.433 Y68.314 E8.73108
G1 X111.353 Y68.019 E8.75214
G1 X110.266 Y67.758 E8.77317
G1 X109.17 Y67.531 E8.79422
G1 X108.069 Y67.338 E8.81525
G1 X106.962 Y67.181 E8.83628
G1 X105.851 Y67.058 E8.85731
G1 X104.736 Y66.97 E8.87835
G1 X103.617 Y66.917 E8.89942
G1 X102.5 Y66.9 E8.92043
G1 X101.383 Y66.917 E8.94145
G1 X100.264 Y66.97 E8.96252
G1 X99.149 Y67.058 E8.98356
G1 X98.038 Y67.181 E9.00459
G1 X96.931 Y67.338 E9.02562
G1 X95.83 Y67.531 E9.04664
G1 X94.734 Y67.758 E9.0677
G1 X93.647 Y68.019 E9.08873
G1 X92.567 Y68.314 E9.10978
G1 X91.498 Y68.643 E9.13082
G1 X90.44 Y69.005 E9.15186
G1 X89.395 Y69.4 E9.17287
G1 X88.362 Y69.828 E9.19391
G1 X87.343 Y70.288 E9.21494
G1 X86.337 Y70.781 E9.23601
G1 X85.35 Y71.303 E9.25701
G1 X84.378 Y71.858 E9.27807
G1 X83.425 Y72.441 E9.29908
G1 X82.49 Y73.056 E9.32013
G1 X81.574 Y73.698 E9.34117
G1 X80.68 Y74.371 E9.36222
G1 X79.808 Y75.07 E9.38325
G1 X78.958 Y75.796 E9.40427
G1 X78.13 Y76.548 E9.42531
G1 X77.327 Y77.327 E9.44636
G1 X76.607 Y78.07 E9.46582
G1 X75.853 Y78.894 E9.48683
G1 X75.125 Y79.742 E9.50785
G1 X74.424 Y80.614 E9.5289
G1 X73.751 Y81.506 E9.54992
G1 X73.105 Y82.42 E9.57097
G1 X72.488 Y83.353 E9.59201
G1 X71.902 Y84.307 E9.61307
G1 X71.346 Y85.275 E9.63407
G1 X70.821 Y86.262 E9.6551
G1 X70.325 Y87.266 E9.67616
G1 X69.864 Y88.284 E9.69719
G1 X69.433 Y89.317 E9.71824
G1 X69.035 Y90.362 E9.73928
G1 X68.671 Y91.419 E9.7603
G1 X68.339 Y92.486 E9.78132
G1 X68.042 Y93.565 E9.80238
G1 X67.778 Y94.652 E9.82342
G1 X67.549 Y95.746 E9.84444
G1 X67.354 Y96.847 E9.86547
G1 X67.194 Y97.953 E9.8865
G1 X67.068 Y99.065 E9.90755
G1 X66.977 Y100.18 E9.92859
G1 X66.922 Y101.298 E9.94965
G1 X66.902 Y102.415 E9.97066
G1 X66.915 Y103.533 E9.99169
G1 X66.965 Y104.651 E10.01274
G1 X67.051 Y105.766 E10.03378
G1 X67.17 Y106.878 E10.05482
G1 X67.325 Y107.985 E10.07584
G1 X67.515 Y109.087 E10.09688
G1 X67.739 Y110.182 E10.1179
G1 X67.998 Y111.271 E10.13896
G1 X68.291 Y112.35 E10.15999
G1 X68.617 Y113.42 E10.18103
G1 X68.976 Y114.479 E10.20206
G1 X69.37 Y115.525 E10.22309
G1 X69.794 Y116.56 E10.24413
G1 X70.253 Y117.581 E10.26519
G1 X70.743 Y118.586 E10.28622
G1 X71.262 Y119.575 E10.30723
G1 X71.815 Y120.547 E10.32826
G1 X72.397 Y121.503 E10.34932
G1 X73.009 Y122.439 E10.37035
G1 X73.65 Y123.356 E10.3914
G1 X74.319 Y124.251 E10.41242
G1 X75.016 Y125.126 E10.43346
G1 X75.74 Y125.978 E10.45449
G1 X76.492 Y126.807 E10.47555
G1 X77.267 Y127.612 E10.49656
G1 X78.13 Y128.451 E10.51921
G1 X78.958 Y129.204 E10.54026
G1 X79.808 Y129.93 E10.56129
G1 X80.68 Y130.629 E10.58231
G1 X81.574 Y131.302 E10.60336
G1 X82.49 Y131.944 E10.6244
G1 X83.425 Y132.559 E10.64545
G1 X84.378 Y133.142 E10.66646
G1 X85.35 Y133.697 E10.68752
G1 X86.4 Y134.25 E10.70984
G1 X86.4 Y137.7 E10.77474
G1 X86.424 Y138.436 E10.78859
G1 X86.568 Y139.095 E10.80128
G1 X86.835 Y139.719 E10.81405
G1 X87.213 Y140.282 E10.8268
G1 X87.703 Y140.776 E10.83989
G1 X88.265 Y141.157 E10.85266
G1 X88.887 Y141.426 E10.86541
G1 X89.555 Y141.576 E10.87829
G0 F3600 X89.544 Y141.675
G0 X88.246 Y141.192
G0 X76.379 Y131.045
G0 X76.281 Y131.06
G1 F1800 X76.086 Y130.385 E10.8915
G1 X75.73 Y129.778 E10.90474
G1 X75.228 Y129.276 E10.9181
G1 X74.622 Y128.917 E10.93134
G1 X73.948 Y128.722 E10.94454
G1 X73.246 Y128.699 E10.95775
G1 X72.558 Y128.852 E10.97101
G1 X71.932 Y129.172 E10.98424
G1 X71.41 Y129.631 E10.99731
G1 X71.013 Y130.211 E11.01053
G1 X70.774 Y130.871 E11.02374
G1 X70.704 Y131.571 E11.03697
G1 X70.813 Y132.266 E11.0502
G1 X71.089 Y132.912 E11.06342
G1 X71.52 Y133.469 E11.07667
G1 X72.08 Y133.905 E11.09002
G1 X72.727 Y134.185 E11.10328
G1 X73.422 Y134.294 E11.11651
G1 X74.121 Y134.229 E11.12972
G1 X74.781 Y133.991 E11.14291
G1 X75.363 Y133.595 E11.15615
G1 X75.823 Y133.075 E11.16921
G1 X76.145 Y132.45 E11.18244
G1 X76.299 Y131.763 E11.19568
G1 X76.281 Y131.06 E11.20891
G0 F3600 X76.379 Y131.045
G0 X76.253 Y132.421
G0 X75.766 Y132.312
;TYPE:WALL-OUTER
G1 F1800 X75.898 Y131.724 E11.22025
G1 X75.882 Y131.122 E11.23158
G1 X75.716 Y130.544 E11.24289
G1 X75.411 Y130.025 E11.25421
G1 X74.981 Y129.594 E11.26566
