;FLAVOR:Marlin
;TIME:5897
;Filament used: 2.13645m
;Layer height: 0.2
;MINX:55.7
;MINY:55.7
;MINZ:0.3
;MAXX:149.3
;MAXY:149.3
;MAXZ:4.9
;Generated with Cura_SteamEngine 4.5.0
M140 S60
M105
M190 S60
M104 S205
M105
M109 S205
M82 ;absolute extrusion mode
G21 ;metric values
G90 ;absolute positioning
M82 ;set extruder to absolute mode
M107 ;start with the fan off
G28 X0 Y0 ;move X/Y to min endstops
G28 Z0 ;move Z to min endstops
G1 Z15.0 F9000 ;move the platform down 15mm
G92 E0 ;zero the extruded length
G1 F200 E6 ;extrude 6 mm of feed stock
G92 E0 ;zero the extruded length again
G1 F9000
;Put printing message on LCD screen
M117 Printing...
G92 E0
G92 E0
G1 F1500 E-6.5
;LAYER_COUNT:24
;LAYER:0
M107
G0 F3600 X70.359 Y72.663 Z0.3
;TYPE:SUPPORT
G1 F1500 E0
G1 F1800 X72.663 Y70.359 E0.06129
G1 X75.815 Y71.202 E0.12267
G1 X76.658 Y74.355 E0.18406
G1 X74.355 Y76.658 E0.24532
G1 X71.202 Y75.815 E0.30672
G1 X70.359 Y72.663 E0.36809
G0 F3600 X72.036 Y71.597
G1 F1800 X71.641 Y72.017 E0.37894
G1 X71.314 Y72.501 E0.38992
G1 X71.136 Y73.153 E0.40264
G1 X71.117 Y73.661 E0.4122
G1 X71.225 Y74.292 E0.42424
G1 X71.51 Y74.836 E0.43579
G1 X71.87 Y75.26 E0.44626
G1 X72.345 Y75.613 E0.45739
G1 X72.971 Y75.86 E0.47005
G1 X73.59 Y75.903 E0.48172
G1 X74.164 Y75.826 E0.49261
G1 X74.737 Y75.567 E0.50444
G1 X75.224 Y75.19 E0.51603
G1 X75.603 Y74.693 E0.52778
G1 X75.829 Y74.107 E0.5396
G1 X75.911 Y73.512 E0.5509
G1 X75.847 Y72.938 E0.56176
G1 X75.631 Y72.39 E0.57284
G1 X75.302 Y71.913 E0.58374
G1 X74.84 Y71.505 E0.59533
G1 X74.3 Y71.243 E0.60663
G1 X73.731 Y71.117 E0.61759
G1 X73.179 Y71.133 E0.62798
G1 X72.632 Y71.272 E0.63859
G1 X72.036 Y71.597 E0.65136
G0 F3600 X72.009 Y71.384
G1 F1800 X72.009 Y71.295 E0.65304
G0 F3600 X71.404 Y72.009
G1 F1800 X71.295 Y72.009 E0.65509
G0 F3600 X71.201 Y74.676
G1 F1800 X71.104 Y74.676 E0.65691
G0 F3600 X72.009 Y75.613
G1 F1800 X72.009 Y75.824 E0.66088
G0 F3600 X74.676 Y75.814
G1 F1800 X74.676 Y76.055 E0.66541
G0 F3600 X75.824 Y74.676
G1 F1800 X76.055 Y74.676 E0.66976
G0 F3600 X75.825 Y72.009
G1 F1800 X75.611 Y72.009 E0.67378
G0 F3600 X74.676 Y71.203
G1 F1800 X74.676 Y71.105 E0.67563
G1 F1500 E-5.82437
G0 F3600 X74.612 Y82.364
G0 X74.126 Y83.167
G0 X74.084 Y121.771
G0 X74.355 Y128.342
G1 F1500 E0.67563
G1 F1800 X76.658 Y130.645 E0.73689
G1 X75.815 Y133.798 E0.79828
G1 X72.663 Y134.641 E0.85966
G1 X70.359 Y132.337 E0.92095
G1 X71.202 Y129.185 E0.98233
G1 X74.355 Y128.342 E1.04372
G0 F3600 X73.734 Y129.084
G1 F1800 X73.085 Y129.136 E1.05597
G1 X72.576 Y129.28 E1.06592
G1 X72.064 Y129.576 E1.07704
G1 X71.625 Y129.995 E1.08846
G1 X71.307 Y130.543 E1.10037
G1 X71.141 Y131.101 E1.11133
G1 X71.114 Y131.664 E1.12193
G1 X71.215 Y132.202 E1.13222
G1 X71.465 Y132.767 E1.14385
G1 X71.922 Y133.31 E1.1572
G1 X72.439 Y133.627 E1.1686
G1 X72.989 Y133.846 E1.17974
G1 X73.563 Y133.882 E1.19056
G1 X74.174 Y133.82 E1.20211
G1 X74.699 Y133.559 E1.21314
G1 X75.246 Y133.204 E1.22541
G1 X75.605 Y132.632 E1.23811
G1 X75.839 Y132.118 E1.24873
G1 X75.906 Y131.488 E1.26065
G1 X75.846 Y130.903 E1.27171
G1 X75.63 Y130.393 E1.28213
G1 X75.339 Y129.927 E1.29246
G1 X74.808 Y129.465 E1.3057
G1 X74.345 Y129.252 E1.31529
G1 X73.734 Y129.084 E1.32721
G0 F3600 X74.676 Y129.183
G1 F1800 X74.676 Y128.945 E1.33169
G0 F3600 X75.969 Y130.683
G1 F1800 X76.413 Y130.683 E1.34004
G0 F3600 X75.727 Y133.35
G1 F1800 X75.388 Y133.35 E1.34642
G0 F3600 X74.676 Y133.793
G1 F1800 X74.676 Y133.896 E1.34835
G0 F3600 X72.009 Y133.705
G1 F1800 X72.009 Y133.598 E1.35037
G0 F3600 X72.009 Y129.377
G1 F1800 X72.009 Y129.175 E1.35417
G1 F1500 E-5.14583
G0 F3600 X81.08 Y129.411
G0 X121.792 Y130.902
G0 X122.486 Y130.491
G0 X128.342 Y130.645
G1 F1500 E1.35417
G1 F1800 X130.645 Y128.342 E1.41543
G1 X133.798 Y129.185 E1.47682
G1 X134.641 Y132.337 E1.5382
G1 X132.337 Y134.641 E1.59949
G1 X129.185 Y133.798 E1.66086
G1 X128.342 Y130.645 E1.72226
G0 F3600 X129.099 Y131.683
G1 F1800 X129.218 Y132.243 E1.73303
G1 X129.448 Y132.78 E1.74402
G1 X129.886 Y133.269 E1.75636
G1 X130.336 Y133.605 E1.76693
G1 X131.024 Y133.861 E1.78074
G1 X131.616 Y133.881 E1.79188
G1 X132.163 Y133.797 E1.80229
G1 X132.706 Y133.562 E1.81342
G1 X133.204 Y133.181 E1.82521
G1 X133.588 Y132.672 E1.83721
G1 X133.811 Y132.094 E1.84886
G1 X133.881 Y131.588 E1.85847
G1 X133.853 Y130.972 E1.87007
G1 X133.611 Y130.367 E1.88233
G1 X133.279 Y129.892 E1.89323
G1 X132.832 Y129.497 E1.90445
G1 X132.274 Y129.218 E1.91618
G1 X131.715 Y129.1 E1.92693
G1 X131.178 Y129.119 E1.93704
G1 X130.53 Y129.27 E1.94955
G1 X129.988 Y129.624 E1.96173
G1 X129.624 Y129.989 E1.97143
G1 X129.277 Y130.528 E1.98349
G1 X129.123 Y131.127 E1.99512
G1 X129.099 Y131.683 E2.00559
G0 F3600 X129.029 Y130.683
G1 F1800 X128.584 Y130.683 E2.01396
G0 F3600 X130.683 Y129.029
G1 F1800 X130.683 Y128.586 E2.02229
G0 F3600 X133.35 Y129.272
G1 F1800 X133.35 Y129.688 E2.03012
G0 F3600 X129.689 Y133.35
G1 F1800 X129.27 Y133.35 E2.038
G1 F1500 E-4.462
G0 F3600 X129.501 Y123.806
G0 X130.913 Y83.224
G0 X130.502 Y82.528
G0 X130.645 Y76.658
G1 F1500 E2.038
G1 F1800 X128.342 Y74.355 E2.09926
G1 X129.185 Y71.202 E2.16066
G1 X132.337 Y70.359 E2.22203
G1 X134.641 Y72.663 E2.28332
G1 X133.798 Y75.815 E2.3447
G1 X130.645 Y76.658 E2.40609
G0 F3600 X131.597 Y75.919
G1 F1800 X132.189 Y75.795 E2.41747
G1 X132.645 Y75.606 E2.42675
G1 X133.208 Y75.214 E2.43966
G1 X133.589 Y74.666 E2.45221
G1 X133.815 Y74.129 E2.46317
G1 X133.894 Y73.499 E2.47511
G1 X133.825 Y73.005 E2.4845
G1 X133.667 Y72.468 E2.49503
G1 X133.269 Y71.89 E2.50823
G1 X132.801 Y71.496 E2.51974
G1 X132.282 Y71.245 E2.53058
G1 X131.7 Y71.118 E2.54179
G1 X131.145 Y71.141 E2.55223
G1 X130.564 Y71.286 E2.5635
G1 X130.045 Y71.598 E2.57489
G1 X129.661 Y71.958 E2.58479
G1 X129.289 Y72.534 E2.59769
G1 X129.126 Y73.114 E2.60902
G1 X129.095 Y73.695 E2.61997
G1 X129.199 Y74.198 E2.62963
G1 X129.446 Y74.826 E2.64232
G1 X129.918 Y75.31 E2.65504
G1 X130.426 Y75.685 E2.66692
G1 X131.02 Y75.851 E2.67852
G1 X131.597 Y75.919 E2.68945
G0 F3600 X130.683 Y75.965
G1 F1800 X130.683 Y76.414 E2.69789
G0 F3600 X129.173 Y74.676
G1 F1800 X128.946 Y74.676 E2.70216
G0 F3600 X129.176 Y72.009
G1 F1800 X129.389 Y72.009 E2.70617
G0 F3600 X133.594 Y72.009
G1 F1800 X133.706 Y72.009 E2.70828
G0 F3600 X133.802 Y74.676
G1 F1800 X133.895 Y74.676 E2.71002
G0 F3600 X133.35 Y75.359
G1 F1800 X133.35 Y75.729 E2.71698
G1 F1500 E-3.78302
;MESH:G20SC_spacer_v1.stl
G0 F3600 X133.789 Y77.37
G0 X135.092 Y77.109
G0 X135.022 Y77.039
;TYPE:WALL-INNER
G1 F1500 E2.71698
G1 F1800 X136.314 Y72.216 E2.81091
G1 X132.784 Y68.686 E2.90481
G1 X127.961 Y69.978 E2.99873
G1 X126.669 Y74.802 E3.09267
G1 X130.198 Y78.331 E3.18655
G1 X135.022 Y77.039 E3.28049
G0 F3600 X135.092 Y77.109
G0 X130.188 Y78.369
G0 X126.631 Y74.812
G0 X122.9 Y67.64
G0 X121.737 Y65.3
G0 X121.835 Y65.282
G1 F1800 X122.059 Y65.939 E3.29355
G1 X122.456 Y66.504 E3.30654
G1 X122.999 Y66.941 E3.31965
G1 X123.64 Y67.207 E3.33271
G1 X124.327 Y67.283 E3.34571
G1 X125.009 Y67.163 E3.35873
G1 X125.63 Y66.859 E3.37174
G1 X126.138 Y66.398 E3.38464
G1 X126.501 Y65.809 E3.39766
G1 X126.678 Y65.169 E3.41015
G1 X126.702 Y64.879 E3.41562
G1 X126.632 Y64.222 E3.42805
G1 X126.367 Y63.581 E3.4411
G1 X125.93 Y63.037 E3.45422
G1 X125.369 Y62.643 E3.46712
G1 X124.779 Y62.429 E3.47892
G1 X124.095 Y62.376 E3.49183
G1 X123.417 Y62.517 E3.50486
G1 X122.807 Y62.841 E3.51785
G1 X122.313 Y63.318 E3.53077
G1 X121.969 Y63.918 E3.54378
G1 X121.806 Y64.59 E3.55678
G1 X121.835 Y65.282 E3.56981
G0 F3600 X121.737 Y65.3
G0 X80.828 Y67.322
G0 X79.479 Y66.975
G0 X78.602 Y66.067
G0 X78.237 Y65.3
G0 X78.335 Y65.282
G1 F1800 X78.559 Y65.939 E3.58287
G1 X78.956 Y66.504 E3.59586
G1 X79.499 Y66.941 E3.60897
G1 X80.14 Y67.207 E3.62202
G1 X80.827 Y67.283 E3.63503
G1 X81.509 Y67.163 E3.64805
G1 X82.13 Y66.859 E3.66106
G1 X82.638 Y66.398 E3.67396
G1 X83.001 Y65.809 E3.68698
G1 X83.178 Y65.169 E3.69947
G1 X83.202 Y64.879 E3.70494
G1 X83.132 Y64.222 E3.71737
G1 X82.867 Y63.581 E3.73042
G1 X82.43 Y63.037 E3.74354
G1 X81.869 Y62.643 E3.75644
G1 X81.279 Y62.429 E3.76824
G1 X80.595 Y62.376 E3.78115
G1 X79.917 Y62.517 E3.79417
G1 X79.307 Y62.841 E3.80717
G1 X78.813 Y63.318 E3.82008
G1 X78.469 Y63.918 E3.83309
G1 X78.306 Y64.59 E3.8461
G1 X78.335 Y65.282 E3.85913
G0 F3600 X78.237 Y65.3
G0 X72.206 Y68.648
G0 X68.648 Y72.206
G0 X69.908 Y77.109
G0 X69.978 Y77.039
G1 F1800 X74.802 Y78.331 E3.95307
G1 X78.331 Y74.802 E4.04695
G1 X77.039 Y69.978 E4.14089
G1 X72.216 Y68.686 E4.23481
G1 X68.686 Y72.216 E4.32872
G1 X69.978 Y77.039 E4.42264
G0 F3600 X69.908 Y77.109
G0 X67.024 Y99.112
G0 X66.862 Y102.465
G0 X67.015 Y105.819
G0 X67.484 Y109.144
G0 X68.266 Y112.41
G0 X69.35 Y115.587
G0 X70.729 Y118.649
G0 X72.39 Y121.567
G0 X78.369 Y130.188
G0 X77.109 Y135.092
G0 X77.039 Y135.022
G1 F1800 X78.331 Y130.198 E4.51658
G1 X74.802 Y126.669 E4.61046
G1 X69.978 Y127.961 E4.7044
G1 X68.686 Y132.784 E4.79832
G1 X72.216 Y136.314 E4.89223
G1 X77.039 Y135.022 E4.98615
G0 F3600 X77.109 Y135.092
G0 X82.4 Y138.301
G0 X83.208 Y139.466
G0 X83.112 Y139.493
G1 F1800 X82.827 Y138.861 E4.99919
G1 X82.374 Y138.33 E5.01232
G1 X81.796 Y137.949 E5.02534
G1 X81.133 Y137.746 E5.03838
G1 X80.442 Y137.736 E5.05138
G1 X79.775 Y137.918 E5.06439
G1 X79.185 Y138.28 E5.07741
G1 X78.722 Y138.786 E5.09031
G1 X78.416 Y139.407 E5.10333
G1 X78.296 Y140.089 E5.11636
G1 X78.368 Y140.777 E5.12937
G1 X78.633 Y141.419 E5.14244
G1 X79.07 Y141.963 E5.15556
G1 X79.631 Y142.357 E5.16846
G1 X80.221 Y142.571 E5.18026
G1 X80.905 Y142.624 E5.19317
G1 X81.583 Y142.483 E5.20619
G1 X82.168 Y142.173 E5.21865
G1 X82.393 Y141.992 E5.22408
G1 X82.82 Y141.492 E5.23645
G1 X83.107 Y140.863 E5.24945
G1 X83.205 Y140.178 E5.26247
G1 X83.112 Y139.493 E5.27547
G0 F3600 X83.208 Y139.466
G0 X89.539 Y141.674
G0 X89.551 Y141.575
G1 F1800 X90.696 Y141.6 E5.29702
G1 X115.028 Y141.6 E5.75471
G1 X115.675 Y141.539 E5.76694
G1 X116.326 Y141.35 E5.77969
G1 X116.931 Y141.042 E5.79246
G1 X117.467 Y140.626 E5.80522
G1 X117.91 Y140.122 E5.81785
G1 X118.256 Y139.541 E5.83057
G1 X118.487 Y138.902 E5.84335
G1 X118.592 Y138.243 E5.8559
G1 X118.6 Y134.241 E5.93118
G1 X119.648 Y133.698 E5.95338
G1 X120.622 Y133.142 E5.97448
G1 X121.575 Y132.559 E5.99549
G1 X122.51 Y131.944 E6.01654
G1 X123.426 Y131.302 E6.03759
G1 X124.32 Y130.629 E6.05863
G1 X125.192 Y129.93 E6.07966
G1 X126.042 Y129.204 E6.10068
G1 X126.87 Y128.452 E6.12172
G1 X127.673 Y127.673 E6.14277
G1 X128.427 Y126.895 E6.16315
G1 X129.181 Y126.068 E6.1842
G1 X129.908 Y125.219 E6.20523
G1 X130.607 Y124.347 E6.22625
G1 X131.28 Y123.453 E6.2473
G1 X131.924 Y122.539 E6.26833
G1 X132.54 Y121.605 E6.28937
G1 X133.124 Y120.651 E6.31042
G1 X133.679 Y119.681 E6.33144
G1 X134.203 Y118.693 E6.35247
G1 X134.696 Y117.689 E6.37351
G1 X135.157 Y116.67 E6.39455
G1 X135.586 Y115.637 E6.41559
G1 X135.982 Y114.592 E6.43661
G1 X136.345 Y113.534 E6.45765
G1 X136.675 Y112.466 E6.47868
G1 X136.971 Y111.387 E6.49973
G1 X137.233 Y110.3 E6.52076
G1 X137.461 Y109.204 E6.54182
G1 X137.655 Y108.102 E6.56287
G1 X137.813 Y106.997 E6.58386
G1 X137.937 Y105.885 E6.60491
G1 X138.026 Y104.77 E6.62595
G1 X138.08 Y103.652 E6.647
G1 X138.098 Y102.535 E6.66802
G1 X138.085 Y101.417 E6.68905
G1 X138.033 Y100.299 E6.7101
G1 X137.946 Y99.184 E6.73114
G1 X137.824 Y98.072 E6.75218
G1 X137.668 Y96.966 E6.77319
G1 X137.477 Y95.863 E6.79425
G1 X137.25 Y94.768 E6.81529
G1 X136.991 Y93.68 E6.83632
G1 X136.696 Y92.601 E6.85737
G1 X136.369 Y91.532 E6.87839
G1 X136.008 Y90.473 E6.89944
G1 X135.613 Y89.427 E6.92047
G1 X135.186 Y88.393 E6.94152
G1 X134.727 Y87.374 E6.96254
G1 X134.236 Y86.369 E6.98358
G1 X133.713 Y85.38 E7.00462
G1 X133.16 Y84.409 E7.02564
G1 X132.577 Y83.454 E7.04669
G1 X131.964 Y82.519 E7.06772
G1 X131.322 Y81.603 E7.08876
G1 X130.65 Y80.708 E7.10981
G1 X129.952 Y79.835 E7.13084
G1 X129.226 Y78.984 E7.15188
G1 X128.475 Y78.156 E7.17291
G1 X127.698 Y77.352 E7.19394
G1 X126.87 Y76.548 E7.21565
G1 X126.042 Y75.796 E7.23669
G1 X125.192 Y75.07 E7.25772
G1 X124.32 Y74.371 E7.27874
G1 X123.426 Y73.698 E7.29979
G1 X122.51 Y73.056 E7.32083
G1 X121.575 Y72.441 E7.34188
G1 X120.622 Y71.858 E7.3629
G1 X119.65 Y71.303 E7.38395
G1 X118.663 Y70.781 E7.40495
G1 X117.657 Y70.288 E7.42603
G1 X116.638 Y69.828 E7.44706
G1 X115.605 Y69.4 E7.46809
G1 X114.56 Y69.005 E7.4891
G1 X113.502 Y68.643 E7.51014
G1 X112.433 Y68.314 E7.53118
G1 X111.353 Y68.019 E7.55224
G1 X110.266 Y67.758 E7.57327
G1 X109.17 Y67.531 E7.59432
G1 X108.069 Y67.338 E7.61535
G1 X106.962 Y67.181 E7.63638
G1 X105.851 Y67.058 E7.6574
G1 X104.736 Y66.97 E7.67844
G1 X103.617 Y66.917 E7.69952
G1 X102.5 Y66.9 E7.72053
G1 X101.383 Y66.917 E7.74154
G1 X100.264 Y66.97 E7.76262
G1 X99.149 Y67.058 E7.78366
G1 X98.038 Y67.181 E7.80468
G1 X96.931 Y67.338 E7.82571
G1 X95.83 Y67.531 E7.84674
G1 X94.734 Y67.758 E7.86779
G1 X93.647 Y68.019 E7.88882
G1 X92.567 Y68.314 E7.90988
G1 X91.498 Y68.643 E7.93092
G1 X90.44 Y69.005 E7.95195
G1 X89.395 Y69.4 E7.97297
G1 X88.362 Y69.828 E7.994
G1 X87.343 Y70.288 E8.01503
G1 X86.337 Y70.781 E8.03611
G1 X85.35 Y71.303 E8.05711
G1 X84.378 Y71.858 E8.07816
G1 X83.425 Y72.441 E8.09918
G1 X82.49 Y73.056 E8.12023
G1 X81.574 Y73.698 E8.14127
G1 X80.68 Y74.371 E8.16232
G1 X79.808 Y75.07 E8.18334
G1 X78.958 Y75.796 E8.20437
G1 X78.13 Y76.548 E8.22541
G1 X77.327 Y77.327 E8.24645
G1 X76.573 Y78.105 E8.26683
G1 X75.819 Y78.932 E8.28789
G1 X75.092 Y79.781 E8.30891
G1 X74.393 Y80.653 E8.32993
G1 X73.72 Y81.547 E8.35098
G1 X73.076 Y82.461 E8.37201
G1 X72.46 Y83.395 E8.39306
G1 X71.876 Y84.349 E8.4141
G1 X71.321 Y85.319 E8.43512
G1 X70.797 Y86.307 E8.45616
G1 X70.304 Y87.311 E8.4772
G1 X69.843 Y88.33 E8.49824
G1 X69.414 Y89.363 E8.51928
G1 X69.018 Y90.408 E8.5403
G1 X68.655 Y91.466 E8.56134
G1 X68.325 Y92.534 E8.58237
G1 X68.029 Y93.613 E8.60341
G1 X67.767 Y94.7 E8.62444
G1 X67.539 Y95.796 E8.6455
G1 X67.345 Y96.898 E8.66655
G1 X67.187 Y98.003 E8.68755
G1 X67.063 Y99.115 E8.70859
G1 X66.974 Y100.23 E8.72964
G1 X66.92 Y101.348 E8.75069
G1 X66.902 Y102.465 E8.7717
G1 X66.915 Y103.583 E8.79274
G1 X66.967 Y104.701 E8.81379
G1 X67.054 Y105.816 E8.83483
G1 X67.176 Y106.928 E8.85587
G1 X67.332 Y108.034 E8.87688
G1 X67.523 Y109.137 E8.89794
G1 X67.75 Y110.232 E8.91897
G1 X68.009 Y111.32 E8.94001
G1 X68.304 Y112.399 E8.96105
G1 X68.631 Y113.468 E8.98208
G1 X68.992 Y114.527 E9.00313
G1 X69.387 Y115.573 E9.02416
G1 X69.814 Y116.607 E9.0452
G1 X70.273 Y117.626 E9.06622
G1 X70.764 Y118.631 E9.08726
G1 X71.287 Y119.62 E9.10831
G1 X71.84 Y120.591 E9.12933
G1 X72.423 Y121.546 E9.15037
G1 X73.036 Y122.481 E9.17141
G1 X73.678 Y123.397 E9.19245
G1 X74.35 Y124.292 E9.2135
G1 X75.048 Y125.165 E9.23452
G1 X75.774 Y126.016 E9.25557
G1 X76.525 Y126.844 E9.27659
G1 X77.302 Y127.648 E9.29763
G1 X78.13 Y128.452 E9.31934
G1 X78.958 Y129.204 E9.34038
G1 X79.808 Y129.93 E9.3614
G1 X80.68 Y130.629 E9.38242
G1 X81.574 Y131.302 E9.40347
G1 X82.49 Y131.944 E9.42451
G1 X83.425 Y132.559 E9.44557
G1 X84.378 Y133.142 E9.46658
G1 X85.35 Y133.697 E9.48764
G1 X86.4 Y134.25 E9.50996
G1 X86.4 Y137.89 E9.57843
G1 X86.427 Y138.455 E9.58907
G1 X86.571 Y139.106 E9.60161
G1 X86.839 Y139.729 E9.61437
G1 X87.22 Y140.291 E9.62714
G1 X87.704 Y140.776 E9.64003
G1 X88.265 Y141.157 E9.65278
G1 X88.887 Y141.426 E9.66553
G1 X89.551 Y141.575 E9.67833
G0 F3600 X89.539 Y141.674
G0 X115.029 Y141.639
G0 X121.878 Y139.395
G0 X122.66 Y138.25
G0 X123.937 Y137.697
G0 X125.313 Y137.913
G0 X126.272 Y138.737
G0 X126.708 Y139.466
G0 X126.612 Y139.493
G1 F1800 X126.327 Y138.861 E9.69137
G1 X125.874 Y138.33 E9.7045
G1 X125.296 Y137.949 E9.71753
G1 X124.633 Y137.746 E9.73057
G1 X123.942 Y137.736 E9.74357
G1 X123.275 Y137.918 E9.75657
G1 X122.685 Y138.28 E9.76959
G1 X122.222 Y138.786 E9.7825
G1 X121.916 Y139.407 E9.79552
G1 X121.796 Y140.089 E9.80854
G1 X121.868 Y140.777 E9.82156
G1 X122.133 Y141.419 E9.83462
G1 X122.57 Y141.963 E9.84775
G1 X123.131 Y142.357 E9.86064
G1 X123.721 Y142.571 E9.87245
G1 X124.405 Y142.624 E9.88535
G1 X125.083 Y142.483 E9.89838
G1 X125.668 Y142.173 E9.91083
G1 X125.893 Y141.992 E9.91626
G1 X126.32 Y141.492 E9.92863
G1 X126.607 Y140.863 E9.94164
G1 X126.705 Y140.178 E9.95465
G1 X126.612 Y139.493 E9.96766
